X:1
T:Fields of Gold Are Glowing
T:Fields of Gold Are Glowing
T:Arthur Henry Brown (1830-1926)
T:Isabella Jane Postgate (1856-?)
T:Public Domain Courtesy of the Cyber Hymnal™
T:Public Domain Courtesy of the Cyber Hymnal™
C:Arthur Henry Brown (1830-1926)
Z:Public Domain
Z:Courtesy of the Cyber Hymnal™
%%score ( 1 2 ) ( 3 4 )
L:1/8
Q:1/4=90
M:6/8
K:C
V:1 treble 
V:2 treble 
V:3 bass 
V:4 bass 
V:1
 ([EG][FA][DB]) [Ec]2 [GB] | ([FA]3 [EG]2) [Fc] | ([Ge][Fd][Ec]) [Fd]2 [DB] | c3- [Ec]2 z |: %4
w: ~ * * ~ ~|~ * ~|~ * * ~ ~|~ ~|
w: ~ * * ~ ~|~ * ~|~ * * ~ ~|~ ~|
w: ~ * * ~ ~|~ * ~|~ * * ~ ~|~ ~|
w: ~ * * ~ ~|~ * ~|~ * * ~ ~|~ ~|
 ([EG][FA])[DB] [Cc]2 [GB] | [FA]3 [EG]3 | ([EG][DF])[CE] [DF]2 [B,G] | [CE]3- [CE]2 z | %8
w: 1.~Fields * of gold are|glow- ing|’Neath * the au- tumn|rays, *|
w: 2.~In * the dark earth|sleep- ing,|Long * the seed hath|lain; *|
w: 3.~We * are Thine own|sow- ing,|Dear, * O Lord, to|Thee; *|
w: 4.~To * Thee, Lord of|Hea- ven,|Thee, * O boun- teous|King, *|
 (cB)[CA] [DG]2 [DF] | (E2 [^DA]) [EG]3 | (GA)[GB] [^FB]2 [FA] | G3- G2 z | %12
w: Now * the spring- tide|sow- * ing,|All * its fruit dis-|plays; *|
w: Joy- * ful now the|reap- * ing,|Fair * the gar- nered|grain. *|
w: For * Thine har- vest|grow- * ing,|We * would fruit- ful|be. *|
w: Gifts * Thy love hath|giv- * en,|We * would glad- ly|bring. *|
 ([EG][DF])[CE] [DF]2 [DG] | ([CE]2 [DG]) c3 | (_B>c)[=GB] A2 [^Gd] | [Ac]3- [Ac]2 z | %16
w: Ev- * ery hill re-|joic- * es,|Fields * with glad- ness|ring, *|
w: As * the gold we|ga- * ther|Of * Thine har- vest|gift, *|
w: When, * their bright sheaves|bear- * ing,|An- * gel reap- ers|come; *|
w: Thou * of all art|giv- * er,|Fa- * ther, Spir- it,|Son, *|
 (fd)[Fc] [GB]2 [Gd] | c3 [FA]3 | (D>E)[CF] [B,G]2 [B,D] | [CE]3- [CE]2 z!ff! | (cB)[Gc] A2 [Ff] | %21
w: Lift- * ing up their|voic- es,|Now * the val- leys|sing, *|Lift- * ing up their|
w: Now * to Thee, our|Fa- ther,|Thank- * ful hearts we|lift; *|Now * to Thee, our|
w: We * with them be|shar- ing,|In * Thy Har- vest|Home; *|We * with them be|
w: Thine * the praise for-|ev- er,|Bless- * èd Three in|One; *|Thine * the praise for-|
 ([Ge]2 [Fd]) [Ec]3 | (AB)[Fc] [Fd]2 [Ge] | [Ec]3- [Ec]2 z || ([eg]>[df][ce]) ([df][ce][Gd]) | %25
w: voic- * es,|Now * the val- leys|sing. *||
w: Fa- * ther,|Thank- * ful hearts we|lift. *||
w: shar- * ing,|In * Thy Har- vest|Home. *||
w: ev- * er,|Bless- * èd Three in|One. *||
 [E-c]2 [FA] [EG]2 [FA] | [Af]>[Ge][Fd] ([Ec][Fd]D) | [Ec]2 [A,C] [G,C]2 z"^Play 4 times" | x6 :| %29
w: ||||
w: ||||
w: ||||
w: ||||
V:2
 x6 | x6 | x6 | E2 F x3 |: x6 | x6 | x6 | x6 | C2 x4 | E2 x4 | D2 x4 | G3- G2 x | x6 | x3 (E2 F) | %14
 ^G2 A2 x2 | x6 | F2 x4 | (GFE) x3 | D2 x4 | x6 | G2 (A G) x2 | x6 | F2 x4 | x6 || x6 | x6 | x6 | %27
 x6 | x6 :| %29
V:3
 [C,-C]3 G,3 | (A,2 B,) [C,C-]3 | [G,C]2 G,- [G,,G,]3 | G,2 A, [C,G,]2 z |: %4
 [C,C]2 [C,G,] ([C,E,]>[D,F,])[E,G,] | (A,2 B,) [C,C]3 | [G,C]2 G, (B,A,)[G,,G,] | %7
 [C,G,]3- [C,G,]2 z | x6 | [A,,A,]2 [A,,E,] [B,,G,]2 [B,,G,] | (G,2 ^F,) G,2 A, | %11
 (B,C)[D,D] [D,C]2 [D,C] | [G,B,]3- [G,B,]2 z | [G,C]2 G, G,2 [B,,G,] | (G,>A,B,) C3 | %15
 [E,C]2 [E,C] [F,C]2 [F,B,] | [F,C]3- [F,C]2 z | [D,D]2 [D,D] [G,D]2 [F,B,] | C3 [F,C]3 | %19
 [F,A,]2 [D,A,] [G,,G,]2 [G,,G,] | [C,G,]3- [C,G,]2 z | [E,G,]2 [E,C] C2 [A,C] | (CA,B,) [A,C]3 | %23
 [F,D]2 [D,D] [G,B,]2 G, || [C,G,]3- [C,G,]2 z | z6 | z4 z [F,,F,] | %27
 [E,,D,]>[E,,E,][F,,F,] [G,,G,]2 [G,,G,] | [E,,C,]2 [C,F,] [C,E,]2 z"^Play 4 times" :| %29
V:4
 x3 C,2 E, | F,3 x3 | x6 | C,3- x3 |: x6 | F,3 x3 | x2 G, G,,2 x | x6 | x6 | x6 | C,3 C,3 | %11
 D,2 x4 | x6 | x2 G, (G,,A,,) x | C,3 (C,2 D,) | x6 | x6 | x6 | (E,D,C,) x3 | x6 | x6 | %21
 x3 (F,G,) x | G,2 x4 | x5 G, || x6 | x6 | x6 | x6 | x6 :| %29

